icons/wifi.svg

<svg width="24" height="24" viewBox="0 0 24 24" fill="none" xmlns="http://www.w3.org/2000/svg">
<path fill-rule="evenodd" clip-rule="evenodd" d="M12.0378 6C8.59559 6 5.27352 7.24045 2.69442 9.48575C2.27788 9.84838 1.64622 9.80468 1.28358 9.38813C0.920946 8.97158 0.964649 8.33993 1.3812 7.97729C4.32653 5.41315 8.11575 4 12.0378 4C15.9599 4 19.7491 5.41315 22.6944 7.97729C23.111 8.33993 23.1547 8.97158 22.792 9.38813C22.4294 9.80468 21.7977 9.84838 21.3812 9.48575C18.8021 7.24045 15.48 6 12.0378 6ZM12.0378 11C9.83691 11 7.70728 11.7619 6.01904 13.1507C5.59253 13.5016 4.96234 13.4403 4.61148 13.0138C4.26061 12.5872 4.32194 11.9571 4.74845 11.6062C6.79663 9.9213 9.37597 9.00003 12.0378 9.00003C14.6997 9.00003 17.279 9.9213 19.3272 11.6062C19.7537 11.9571 19.815 12.5872 19.4641 13.0138C19.1133 13.4403 18.4831 13.5016 18.0566 13.1507C16.3683 11.7619 14.2387 11 12.0378 11ZM12.0047 16C11.0323 16 10.0851 16.2989 9.29461 16.8536C8.84252 17.1708 8.21886 17.0615 7.90164 16.6094C7.58442 16.1573 7.69376 15.5337 8.14585 15.2164C9.27441 14.4246 10.623 14 12.0047 14C13.3864 14 14.735 14.4246 15.8636 15.2164C16.3157 15.5337 16.425 16.1573 16.1078 16.6094C15.7906 17.0615 15.1669 17.1708 14.7148 16.8536C13.9243 16.2989 12.9771 16 12.0047 16ZM11 20C11 19.4477 11.4477 19 12 19H12.0095C12.5617 19 13.0095 19.4477 13.0095 20C13.0095 20.5523 12.5617 21 12.0095 21H12C11.4477 21 11 20.5523 11 20Z" fill="black"/>
</svg>

<svg
  width="24"
  height="24"
  viewBox="0 0 24 24"
  xmlns="http://www.w3.org/2000/svg"
>
  <path
    fill-rule="evenodd"
    clip-rule="evenodd"
    d="M12.038 6C8.596 6 5.274 7.24 2.694 9.486a1 1 0 0 1-1.313-1.509A16.233 16.233 0 0 1 12.038 4c3.922 0 7.711 1.413 10.656 3.977a1 1 0 1 1-1.313 1.509A14.233 14.233 0 0 0 12.038 6zm0 5c-2.201 0-4.33.762-6.019 2.15a1 1 0 1 1-1.27-1.544A11.476 11.476 0 0 1 12.037 9c2.662 0 5.241.921 7.29 2.606a1 1 0 0 1-1.271 1.545A9.476 9.476 0 0 0 12.037 11zm-.033 5a4.72 4.72 0 0 0-2.71.854 1 1 0 0 1-1.15-1.638A6.72 6.72 0 0 1 12.006 14a6.72 6.72 0 0 1 3.859 1.216 1 1 0 0 1-1.15 1.638 4.72 4.72 0 0 0-2.71-.854zM11 20a1 1 0 0 1 1-1h.01a1 1 0 0 1 0 2H12a1 1 0 0 1-1-1z"
  />
</svg>
